!!!COM: Music21
!!!OTL: waltz_I-Dreamt-I-Dwelt-In-Marble-Halls
!!!OMV: waltz_I-Dreamt-I-Dwelt-In-Marble-Halls
**kern
*clefG2
*k[b-e-]
*M3/4
=1
4f
=
4f
4b-
4a
=
4f
4a
4g
=
4f
4g
4f
=
2d
4d
=
4f
4e-
4Bn
=
4c
4.f
8e-
=
8dL
8cJ
[2B-
=
2B-]
8fL
8fJ
=
4f
4b-
4a
!!linebreak:original
=
4f
4a
4g
=
4f
4g
4f
=
2d
4d
=
4f
4e-
4Bn
=
4c
4.f
8e-
=
8dL
8cJ
[2B-
=
2B-]
8fL
8fJ
=
4g
4cc
4b-
=
4g-X
4cc
4b-
=
4f
4cc
4b-
!!linebreak:original
=
2f
8fL
8fJ
=
4en
4f
4g
=
2a
4a
=
[2.a
=
2a]
4g
=
4f
4b-
4a
=
4f
4a
4g
=
4f
4g
4f
=
2d
4d
=
4f
4e-
4Bn
=
2c
4e-
!!linebreak:original
=
2d
8e-L
8fJ
=
4g
4.a
8b-
=
8b-L
16ccL
16b-JJ
4a
4b-
=
4cc
4g
4a
=
4d
4e-
4f
=
4g
4.a
8b-
=
8b-L
16ccL
16b-JJ
4a
4b-
=
2dd
4cc
=
2g
4a
=
[2.b-
!!linebreak:original
=
2b-]
4ryy
=||
*-
